src/lib/packages/icons/src/assets/line/arrow-forward-alt.svg

<svg width="24" height="24" viewBox="0 0 24 24" fill="none" xmlns="http://www.w3.org/2000/svg">
<path d="M21.75 10V14C21.75 14.414 21.4139 14.75 21 14.75H16.9951C16.5811 14.75 16.2451 14.414 16.2451 14C16.2451 13.586 16.5811 13.25 16.9951 13.25H19.288C17.865 10.524 15.0168 8.75 11.8798 8.75C7.97583 8.75 4.62493 11.3911 3.72993 15.1731C3.64893 15.5181 3.34093 15.75 3.00093 15.75C2.94293 15.75 2.88585 15.744 2.82685 15.73C2.42385 15.634 2.17497 15.2299 2.26997 14.8269C3.32597 10.3659 7.27686 7.25 11.8789 7.25C15.3219 7.25 18.474 9.0579 20.249 11.8999V10C20.249 9.586 20.585 9.25 20.999 9.25C21.413 9.25 21.75 9.586 21.75 10Z" fill="currentColor"/>
</svg>

<svg xmlns="http://www.w3.org/2000/svg" width="24" height="24" fill="none"><path fill="currentColor" d="M21.75 10v4a.75.75 0 0 1-.75.75h-4.005a.75.75 0 0 1 0-1.5h2.293a8.382 8.382 0 0 0-7.408-4.5c-3.904 0-7.255 2.641-8.15 6.423a.749.749 0 0 1-.903.557.751.751 0 0 1-.557-.903c1.056-4.461 5.007-7.577 9.609-7.577a9.894 9.894 0 0 1 8.37 4.65V10a.75.75 0 0 1 1.501 0Z"/></svg>
